X: 3
T: Danse Breton
Z: hetty
S: https://thesession.org/tunes/6932#setting18515
R: reel
M: 4/4
L: 1/8
K: Emin
EB BA/B/ | CB AF/G/ | AF BA/G/ | F/G/E/F/ GF | EB BA/B/ | AF BA/G/ | F/E/F/G/ E2 :||EE FG/F/ | EE F_F/G/ | AF BA/G/ | F/G/E/F/ GF | EE FG/F/ | EE F_F/G/ | AF BA/G/ | F/E/F/G/ E2 :||EB B_B/A/ | GE E2 | AG FE | DE/F GF/G/ | EB B_B/A/ | GE E2 | AG FE | D/E/F/D/ E2 :||E/F/G/F/ E/F/G/F/ | E/F/G/A/ BB | D/E/F/E/ D_D/E/ | FA GF/G/ | E/F/G/F/ E/F/G/E/ | E/F/G/A/ BB | D/E/F/G/ F_F/A/ | GF E2 :||
